src/24/panel/indicator-keyboard-Hi.svg

<svg viewBox="0 0 24 24" xmlns="http://www.w3.org/2000/svg">
 <path style="fill:#ececec;fill-opacity:1" d="m 4 2 c -1.108 0 -2 0.892 -2 2 l 0 16 c 0 1.108 0.892 2 2 2 l 16 0 c 1.108 0 2 -0.892 2 -2 l 0 -16 c 0 -1.108 -0.892 -2 -2 -2 l -16 0 z m 12.496 5.113 c 0.25 0 0.467 0.083 0.65 0.25 0.183 0.167 0.275 0.396 0.275 0.687 0 0.283 -0.092 0.507 -0.275 0.674 -0.183 0.167 -0.4 0.25 -0.65 0.25 -0.258 0 -0.479 -0.083 -0.662 -0.25 -0.183 -0.167 -0.275 -0.39 -0.275 -0.674 0 -0.292 0.092 -0.521 0.275 -0.688 0.183 -0.167 0.404 -0.25 0.662 -0.25 z m -9.672 0.725 1.574 0 0 3.463 3.764 0 0 -3.463 1.574 0 0 8.662 -1.574 0 0 -3.838 -3.764 0 0 3.838 -1.574 0 0 -8.662 z m 8.922 2.125 1.512 0 0 6.537 -1.512 0 0 -6.537 z"/>
</svg>

<svg viewBox="0 0 24 24" xmlns="http://www.w3.org/2000/svg"><path d="M4 2c-1.108 0-2 .892-2 2v16c0 1.108.892 2 2 2h16c1.108 0 2-.892 2-2V4c0-1.108-.892-2-2-2H4zm12.496 5.113c.25 0 .467.083.65.25.183.167.275.396.275.687 0 .283-.092.507-.275.674a.932.932 0 0 1-.65.25.948.948 0 0 1-.662-.25c-.183-.167-.275-.39-.275-.674 0-.292.092-.521.275-.688a.948.948 0 0 1 .662-.25zm-9.672.725h1.574v3.463h3.764V7.838h1.574V16.5h-1.574v-3.838H8.398V16.5H6.824V7.838zm8.922 2.125h1.512V16.5h-1.512V9.963z" fill="#ececec"/></svg>
